X:18
T:Come all you sailors bold (Admiral Benbow)
S:'The Vocal Enchantress' 1783
z:Bruce Olson 'Scarce Music in ABC'
Q:1/4=120
L:1/4
M:C|
K:D dorian
A/|dd(^c/d/) (e/c/)|A2FA|c2Ae|g3(f/e/)|
f(e/d/) (^c/d/) e/c/| A2FA|d3(d/e/)|
ffaa|g2(fe)|f(e/d/) (g/f/) (e/d/)|{d/}^c2zG|
Adeg|f2(f/e/) (d/^c/)|d2A^c|d3G|
"Chorus"Adfg|f2(f/e/) (d/^c/)|d2A^c|d3|]
